Flat-Remix-Dark/apps/scalable/preferences-desktop-display.svg

<svg xmlns="http://www.w3.org/2000/svg" xmlns:xlink="http://www.w3.org/1999/xlink" width="384pt" height="384pt" version="1.1" viewBox="0 0 384 384">
 <defs>
  <linearGradient id="linear0" x1="32.987" x2="763.265" y1="976.668" y2="390.876" gradientTransform="matrix(0.714496,0,0,0.527311,9.089072,-260.118476)" gradientUnits="userSpaceOnUse">
   <stop offset="0" style="stop-color:#367bf0"/>
   <stop offset="1" style="stop-color:rgb(72.156%,9.019%,29.803%);stop-opacity:0.996078"/>
  </linearGradient>
  <filter id="alpha" width="100%" height="100%" x="0%" y="0%" filterUnits="objectBoundingBox">
   <feColorMatrix in="SourceGraphic" type="matrix" values="0 0 0 0 1 0 0 0 0 1 0 0 0 0 1 0 0 0 1 0"/>
  </filter>
  <mask id="mask0">
   <g filter="url(#alpha)">
    <rect width="384" height="384" x="0" y="0" style="fill:rgb(0%,0%,0%);fill-opacity:0.301961"/>
   </g>
  </mask>
  <clipPath id="clip1">
   <rect width="384" height="384" x="0" y="0"/>
  </clipPath>
  <g id="surface5" clip-path="url(#clip1)">
   <path style="fill:rgb(0%,0%,0%)" d="M 223.097656 233.070312 L 208.242188 233.070312 L 208.242188 248.867188 L 223.097656 248.867188 Z M 200.8125 233.070312 L 185.957031 233.070312 L 185.957031 248.867188 L 200.8125 248.867188 Z M 178.53125 233.070312 L 163.675781 233.070312 L 163.675781 248.867188 L 178.53125 248.867188 Z M 178.53125 233.070312"/>
  </g>
 </defs>
 <g>
  <path style="fill:rgb(15.294%,16.470%,20.392%)" d="M 158.175781 263.765625 L 225.828125 263.765625 L 225.828125 318.488281 L 158.175781 318.488281 Z M 158.175781 263.765625"/>
  <path style="fill:rgb(9.803%,9.803%,9.803%)" d="M 158.074219 264.171875 L 225.925781 264.171875 L 225.925781 318.339844 Z M 158.074219 264.171875"/>
  <path style="fill:rgb(0%,0%,0%)" d="M 23.996094 55.28125 L 360.007812 55.28125 C 364.546875 55.28125 368.226562 58.746094 368.226562 63.023438 L 368.226562 256.601562 C 368.226562 260.878906 364.546875 264.347656 360.007812 264.347656 L 23.996094 264.347656 C 19.460938 264.347656 15.78125 260.878906 15.78125 256.601562 L 15.78125 63.023438 C 15.78125 58.746094 19.460938 55.28125 23.996094 55.28125 Z M 23.996094 55.28125"/>
  <path style="fill:url(#linear0)" d="M 31.472656 64.058594 L 352.539062 64.058594 C 356.609375 64.058594 359.910156 67.375 359.910156 71.464844 L 359.910156 248.164062 C 359.910156 252.253906 356.609375 255.570312 352.539062 255.570312 L 31.472656 255.570312 C 27.398438 255.570312 24.097656 252.253906 24.097656 248.164062 L 24.097656 71.464844 C 24.097656 67.375 27.398438 64.058594 31.472656 64.058594 Z M 31.472656 64.058594"/>
  <path style="fill:rgb(9.803%,9.803%,9.803%)" d="M 132.195312 317.359375 L 251.796875 317.359375 C 254.375 317.359375 256.460938 319.328125 256.460938 321.757812 L 256.460938 324.324219 C 256.460938 326.75 254.375 328.71875 251.796875 328.71875 L 132.195312 328.71875 C 129.617188 328.71875 127.53125 326.75 127.53125 324.324219 L 127.53125 321.757812 C 127.53125 319.328125 129.617188 317.359375 132.195312 317.359375 Z M 132.195312 317.359375"/>
  <use mask="url(#mask0)" xlink:href="#surface5"/>
  <path style="fill:rgb(100.000%,100.000%,100.000%)" d="M 220.324219 230.296875 L 205.46875 230.296875 L 205.46875 246.09375 L 220.324219 246.09375 Z M 198.042969 230.296875 L 183.1875 230.296875 L 183.1875 246.09375 L 198.042969 246.09375 Z M 175.757812 230.296875 L 160.902344 230.296875 L 160.902344 246.09375 L 175.757812 246.09375 Z M 175.757812 230.296875"/>
 </g>
</svg>

<svg width="512" height="512" version="1.1" viewBox="0 0 384 384" xmlns="http://www.w3.org/2000/svg"><defs><clipPath><rect width="384" height="384"/></clipPath><linearGradient id="a" x1="24.161" x2="470.92" y1="255.65" y2="-4.7024" gradientTransform="translate(-.021237 -.011297)" gradientUnits="userSpaceOnUse"><stop stop-color="#367bf0" offset="0"/><stop stop-color="#b7164b" stop-opacity=".99608" offset="1"/></linearGradient></defs><path d="m158.18 263.77h67.652v54.723h-67.652z" fill="#262833"/><path d="m158.07 264.17h67.852v54.168z" fill="#171717"/><path d="m23.996 55.281h336.01c4.5391 0 8.2188 3.4648 8.2188 7.7422v193.58c0 4.2774-3.6797 7.7461-8.2188 7.7461h-336.01c-4.5352 0-8.2148-3.4688-8.2148-7.7461v-193.58c0-4.2773 3.6797-7.7422 8.2148-7.7422z"/><path d="m132.2 317.36h119.6c2.5781 0 4.6641 1.9688 4.6641 4.3984v2.5664c0 2.4258-2.0859 4.3945-4.6641 4.3945h-119.6c-2.5781 0-4.6641-1.9688-4.6641-4.3945v-2.5664c0-2.4297 2.0859-4.3984 4.6641-4.3984z" fill="#171717"/><path d="m23.996 59.781h336.01c4.5391 0 8.2187 3.4648 8.2187 7.7422v193.58c0 4.2774-3.6797 7.7461-8.2187 7.7461h-336.01c-4.5352 0-8.2148-3.4688-8.2148-7.7461v-193.58c0-4.2773 3.6797-7.7422 8.2148-7.7422z" opacity=".3"/><rect x="24.14" y="63.993" width="335.73" height="191.64" rx="3.7555" ry="3.7555" fill="url(#a)"/><path d="m223.32 233.3h-14.855v15.797h14.855zm-22.281 0h-14.855v15.797h14.855zm-22.285 0h-14.855v15.797h14.855z" fill="#060606" opacity=".3"/><path d="m220.32 230.3h-14.855v15.797h14.855zm-22.281 0h-14.855v15.797h14.855zm-22.285 0h-14.855v15.797h14.855z" fill="#fff"/></svg>
